48x48/apps/re-volt.svg

<svg xmlns="http://www.w3.org/2000/svg" width="48" height="48" version="1.1">
 <path style="opacity:0.2" d="m 21.277755,5.0073366 c -0.101786,-0.011706 -0.206746,-0.00989 -0.310554,0.00586 -0.830471,0.1259962 -1.363337,1.1193203 -1.195342,2.2266154 l 0.04102,0.2753972 A 18.000428,18.000428 0 0 0 16.340137,8.7320346 L 16.201462,8.4917945 C 15.640655,7.5223514 14.604271,7.0789769 13.877188,7.4995834 13.150109,7.9201887 13.015589,9.0399663 13.5764,10.009409 l 0.140628,0.242193 a 18.000428,18.000428 0 0 0 -3.248124,2.898506 L 10.250149,12.987995 C 9.3483821,12.323808 8.2208832,12.335106 7.7227447,13.011435 7.2246055,13.68776 7.5495104,14.765276 8.4512778,15.429462 l 0.2265678,0.167972 A 18.000428,18.000428 0 0 0 7.0840577,18.913917 L 6.81452,18.84165 C 5.7324694,18.552702 4.6854722,18.973494 4.4687611,19.785031 4.25205,20.59657 4.9492477,21.480506 6.0312983,21.769453 l 0.2656313,0.07032 a 18.000428,18.000428 0 0 0 -0.296882,3.160231 18.000428,18.000428 0 0 0 0.04297,1.191435 l -0.2578188,0.03906 c -1.107295,0.167995 -1.8975226,0.972305 -1.7715264,1.802776 0.1259962,0.830471 1.1193203,1.363337 2.2266155,1.195342 l 0.2753971,-0.04102 a 18.000428,18.000428 0 0 0 1.2168259,3.472739 l -0.2402402,0.138675 c -0.9694431,0.560807 -1.4128175,1.59719 -0.992211,2.324274 0.4206057,0.72708 1.5403825,0.861599 2.5098252,0.300788 L 9.252078,35.283447 a 18.000428,18.000428 0 0 0 2.898507,3.248124 l -0.162114,0.218755 c -0.664187,0.901767 -0.652888,2.029266 0.02344,2.527404 0.676323,0.498139 1.753841,0.173236 2.418026,-0.728533 l 0.167972,-0.226567 a 18.000428,18.000428 0 0 0 3.316485,1.593788 l -0.07227,0.269537 c -0.288948,1.08205 0.131843,2.129049 0.943382,2.345759 0.811537,0.216711 1.695473,-0.480487 1.984422,-1.562537 l 0.07032,-0.265632 a 18.000428,18.000428 0 0 0 3.160231,0.296882 18.000428,18.000428 0 0 0 1.191434,-0.04297 l 0.03906,0.25782 c 0.167995,1.107294 0.972306,1.897523 1.802777,1.771526 0.830472,-0.125996 1.363336,-1.119321 1.195341,-2.226615 l -0.04102,-0.275398 a 18.000428,18.000428 0 0 0 3.472739,-1.216826 l 0.138675,0.24024 c 0.560809,0.969443 1.597191,1.412818 2.324274,0.992212 0.727082,-0.420607 0.861599,-1.540384 0.300789,-2.509826 l -0.140629,-0.242193 a 18.000428,18.000428 0 0 0 3.248125,-2.898507 l 0.218755,0.162114 c 0.901765,0.664189 2.029263,0.652887 2.527404,-0.02344 0.498137,-0.676324 0.173236,-1.753841 -0.728533,-2.418026 l -0.226568,-0.167972 a 18.000428,18.000428 0 0 0 1.593788,-3.316485 l 0.269537,0.07227 c 1.082051,0.288948 2.129048,-0.131843 2.345759,-0.943382 0.216711,-0.811537 -0.480487,-1.695473 -1.562537,-1.984422 l -0.265631,-0.07032 A 18.000428,18.000428 0 0 0 42.0009,24.999996 18.000428,18.000428 0 0 0 41.95793,23.808562 l 0.257819,-0.03906 c 1.107295,-0.167995 1.897522,-0.972306 1.771526,-1.802777 -0.125996,-0.830472 -1.11932,-1.363336 -2.226615,-1.195341 l -0.275397,0.04102 a 18.000428,18.000428 0 0 0 -1.216826,-3.472739 l 0.240239,-0.138675 c 0.969443,-0.560809 1.412818,-1.597192 0.992212,-2.324274 -0.420606,-0.727083 -1.540384,-0.861599 -2.509826,-0.300789 l -0.242193,0.140629 A 18.000428,18.000428 0 0 0 35.850367,11.468427 L 36.01248,11.249672 C 36.676669,10.347907 36.665366,9.2204073 35.989042,8.7222687 35.312717,8.2241295 34.2352,8.5490344 33.571015,9.4508017 L 33.403043,9.6773696 A 18.000428,18.000428 0 0 0 30.086558,8.0835817 L 30.158828,7.814044 C 30.447773,6.7319933 30.026982,5.6849961 29.215444,5.4682851 28.403905,5.2515739 27.519969,5.9487716 27.231022,7.0308222 l -0.07032,0.2656314 a 18.000428,18.000428 0 0 0 -3.160226,-0.2968821 18.000428,18.000428 0 0 0 -1.191435,0.04297 L 22.769977,6.7847226 C 22.622982,5.8158394 21.990259,5.0892785 21.277755,5.0073366 Z"/>
 <path style="fill:#4f4f4f" d="M 20.967672,4.0131996 C 20.137221,4.1391929 19.603904,5.1320355 19.771895,6.2393043 L 21.29872,16.30297 16.202009,7.4917626 C 15.641215,6.5223426 14.604232,6.0800616 13.877166,6.5006581 13.150104,6.9212534 13.016213,8.0407832 13.57701,9.0102025 l 5.472844,9.4609965 -8.80077,-6.482105 C 9.3473389,11.324923 8.2206355,11.334693 7.7225089,12.011004 7.2243814,12.687313 7.549237,13.766212 8.4509829,14.430381 L 16.649299,20.46876 6.8140146,17.841612 c -1.0820249,-0.288941 -2.1282206,0.131295 -2.3449265,0.942813 -0.216706,0.811519 0.4791715,1.696597 1.5611964,1.985538 L 16.591771,23.590436 5.7844549,25.230085 c -1.1072688,0.167991 -1.8972487,0.971791 -1.7712555,1.802243 0.1259932,0.830451 1.1188359,1.363768 2.2261047,1.195777 L 16.302971,26.70128 7.4917624,31.797991 c -0.9694201,0.560794 -1.4117009,1.597776 -0.9911045,2.324843 0.4205957,0.727063 1.5401247,0.860953 2.5095444,0.300156 l 9.4609967,-5.472844 -6.482105,8.80077 c -0.664171,0.901745 -0.6544,2.028448 0.02191,2.526575 0.676307,0.498127 1.755208,0.173273 2.419377,-0.728474 l 6.038375,-8.198316 -2.627148,9.835284 c -0.288941,1.082024 0.131295,2.128221 0.942814,2.344926 0.811518,0.216706 1.696596,-0.479171 1.985538,-1.561196 l 2.820478,-10.561486 1.639648,10.807316 c 0.167991,1.107268 0.971792,1.897249 1.802243,1.771255 0.830452,-0.125993 1.363768,-1.118836 1.195777,-2.226104 l -1.526824,-10.063667 5.09671,8.811209 c 0.560795,0.96942 1.597777,1.4117 2.324843,0.991104 0.727064,-0.420597 0.860953,-1.540126 0.300156,-2.509545 l -5.472844,-9.460996 8.800771,6.482105 c 0.901744,0.664173 2.028446,0.654399 2.526575,-0.02191 0.498125,-0.676308 0.173273,-1.755208 -0.728475,-2.419377 l -8.198315,-6.038375 9.835283,2.627148 c 1.082025,0.288941 2.128221,-0.131295 2.344927,-0.942814 0.216706,-0.811518 -0.479172,-1.696596 -1.561196,-1.985538 L 31.40823,24.409563 42.215545,22.769915 c 1.107269,-0.167991 1.897249,-0.971792 1.771256,-1.802243 -0.125993,-0.830452 -1.118836,-1.363768 -2.226105,-1.195777 l -10.063666,1.526824 8.811209,-5.09671 c 0.96942,-0.560795 1.4117,-1.597778 0.991104,-2.324843 -0.420596,-0.727065 -1.540127,-0.860953 -2.509546,-0.300156 l -9.460996,5.472844 6.482105,-8.800771 C 36.675079,9.3473389 36.665306,8.2206359 35.988998,7.7225091 35.312689,7.2243817 34.23379,7.5492373 33.569621,8.4509831 L 27.531245,16.649298 30.158393,6.8140148 C 30.447334,5.7319899 30.027099,4.6857942 29.21558,4.4690883 28.404061,4.2523823 27.518983,4.9482598 27.230042,6.0302847 L 24.409564,16.59177 22.769915,5.7844551 C 22.601924,4.6771863 21.798124,3.8872064 20.967672,4.0131996 Z"/>
 <circle style="fill:#4f4f4f" cx="24" cy="24" r="18"/>
 <circle style="opacity:0.3" cx="24" cy="24" r="12"/>
 <circle style="opacity:0.2" cx="24" cy="25" r="9"/>
 <circle style="fill:#797979" cx="24" cy="24" r="9"/>
 <path style="opacity:0.2" d="M 26,11.000005 24.793259,22.000003 H 32 L 22,39 23.483624,27.000003 H 16 Z"/>
 <path style="fill:#ff8602" d="M 26,10.000002 24.793259,21 H 32 L 22,37.999997 23.483624,26 H 16 Z"/>
 <path style="opacity:0.2;fill:#f4f4f7" d="M 26 10 L 16 26 L 16.625 26 L 25.867188 11.212891 L 26 10 z M 24.902344 21 L 24.792969 22 L 31.412109 22 L 32 21 L 24.902344 21 z M 23.361328 27 L 22 38 L 22.15625 37.734375 L 23.484375 27 L 23.361328 27 z"/>
 <path style="opacity:0.1;fill:#f4f4f7" d="M 21.277344 4.0078125 C 21.175558 3.9961065 21.070605 3.9979219 20.966797 4.0136719 C 20.136326 4.1396681 19.603489 5.1329393 19.771484 6.2402344 L 19.791016 6.3652344 C 19.927976 5.6522495 20.36645 5.1047544 20.966797 5.0136719 C 21.070605 4.9979219 21.175558 4.9961065 21.277344 5.0078125 C 21.989848 5.0897544 22.622536 5.816273 22.769531 6.7851562 L 22.808594 7.0429688 A 18.000428 18.000428 0 0 1 24 7 A 18.000428 18.000428 0 0 1 27.160156 7.296875 L 27.230469 7.03125 C 27.519416 5.9491994 28.403305 5.2520388 29.214844 5.46875 C 29.714417 5.6021548 30.064345 6.0517382 30.193359 6.6289062 C 30.389535 5.6155317 29.979599 4.6729682 29.214844 4.46875 C 28.403305 4.2520388 27.519416 4.9491994 27.230469 6.03125 L 27.160156 6.296875 A 18.000428 18.000428 0 0 0 24 6 A 18.000428 18.000428 0 0 0 22.808594 6.0429688 L 22.769531 5.7851562 C 22.622536 4.816273 21.989848 4.0897544 21.277344 4.0078125 z M 14.46875 6.3417969 C 14.26058 6.3442308 14.058724 6.3948484 13.876953 6.5 C 13.322572 6.8207016 13.116706 7.5476003 13.296875 8.3046875 C 13.389718 7.9597889 13.581447 7.6709461 13.876953 7.5 C 14.604036 7.0793935 15.640365 7.5227444 16.201172 8.4921875 L 16.339844 8.7324219 A 18.000428 18.000428 0 0 1 19.8125 7.515625 L 19.771484 7.2402344 C 19.734133 6.9940399 19.736163 6.7559429 19.763672 6.5292969 A 18.000428 18.000428 0 0 0 16.339844 7.7324219 L 16.201172 7.4921875 C 15.780567 6.7651052 15.093259 6.3344952 14.46875 6.3417969 z M 30.244141 7.1445312 C 30.243274 7.3619017 30.219063 7.5865413 30.158203 7.8144531 L 30.085938 8.0839844 A 18.000428 18.000428 0 0 1 33.402344 9.6777344 L 33.570312 9.4511719 C 34.234497 8.5494046 35.311956 8.224517 35.988281 8.7226562 C 36.205951 8.8829785 36.348183 9.1128026 36.427734 9.375 C 36.598751 8.7120452 36.455524 8.0667987 35.988281 7.7226562 C 35.311956 7.2245171 34.234497 7.5494046 33.570312 8.4511719 L 33.402344 8.6777344 A 18.000428 18.000428 0 0 0 30.244141 7.1445312 z M 13.363281 9.5253906 A 18.000428 18.000428 0 0 0 10.46875 12.150391 L 10.25 11.988281 C 9.3482331 11.324094 8.2207947 11.33539 7.7226562 12.011719 C 7.4647191 12.361921 7.4308468 12.819231 7.5800781 13.271484 C 7.6165435 13.18042 7.6630237 13.092682 7.7226562 13.011719 C 8.2207947 12.33539 9.3482331 12.324094 10.25 12.988281 L 10.46875 13.150391 A 18.000428 18.000428 0 0 1 13.716797 10.251953 L 13.576172 10.009766 C 13.484408 9.8511378 13.418262 9.6883469 13.363281 9.5253906 z M 36.257812 10.841797 C 36.189517 10.980738 36.108908 11.118046 36.011719 11.25 L 35.849609 11.46875 A 18.000428 18.000428 0 0 1 38.748047 14.716797 L 38.990234 14.576172 C 39.959676 14.015362 41.079394 14.14987 41.5 14.876953 C 41.524128 14.918662 41.536182 14.964216 41.554688 15.007812 C 41.69708 14.616259 41.69485 14.213781 41.5 13.876953 C 41.079394 13.14987 39.959676 13.015362 38.990234 13.576172 L 38.748047 13.716797 A 18.000428 18.000428 0 0 0 36.257812 10.841797 z M 8.2949219 15.294922 A 18.000428 18.000428 0 0 0 7.0839844 17.914062 L 6.8144531 17.841797 C 5.7324025 17.552849 4.6854611 17.973619 4.46875 18.785156 C 4.396019 19.057519 4.4337274 19.336166 4.546875 19.599609 C 4.8653045 18.914553 5.8205133 18.576378 6.8144531 18.841797 L 7.0839844 18.914062 A 18.000428 18.000428 0 0 1 8.6777344 15.597656 L 8.4511719 15.429688 C 8.3944327 15.387897 8.3470322 15.339782 8.2949219 15.294922 z M 40.597656 17.140625 C 40.56684 17.160127 40.539785 17.182676 40.507812 17.201172 L 40.267578 17.339844 A 18.000428 18.000428 0 0 1 41.484375 20.8125 L 41.759766 20.771484 C 42.714476 20.626639 43.58237 21.003865 43.884766 21.642578 C 43.980101 21.427453 44.021624 21.199442 43.986328 20.966797 C 43.860332 20.136325 42.867061 19.603489 41.759766 19.771484 L 41.484375 19.8125 A 18.000428 18.000428 0 0 0 40.597656 17.140625 z M 6.1679688 21.806641 A 18.000428 18.000428 0 0 0 6 24 A 18.000428 18.000428 0 0 0 6.0195312 24.548828 A 18.000428 18.000428 0 0 1 6.296875 21.839844 L 6.1679688 21.806641 z M 41.992188 23.802734 L 41.957031 23.808594 A 18.000428 18.000428 0 0 1 41.980469 24.458984 A 18.000428 18.000428 0 0 0 42 24 A 18.000428 18.000428 0 0 0 41.992188 23.802734 z M 6.0078125 25.197266 L 5.7851562 25.230469 C 4.6778613 25.398464 3.8876757 26.202732 4.0136719 27.033203 C 4.0310804 27.147947 4.0686513 27.255105 4.1171875 27.357422 C 4.3622331 26.804705 4.9881481 26.351388 5.7851562 26.230469 L 6.0429688 26.191406 A 18.000428 18.000428 0 0 1 6.0078125 25.197266 z M 41.832031 27.193359 A 18.000428 18.000428 0 0 1 41.703125 28.160156 L 41.96875 28.230469 C 42.688723 28.422729 43.231726 28.879847 43.455078 29.402344 C 43.483602 29.341191 43.513468 29.281435 43.53125 29.214844 C 43.747961 28.403307 43.0508 27.519418 41.96875 27.230469 L 41.832031 27.193359 z M 7.4042969 31.859375 C 6.5544578 32.396677 6.1533641 33.298877 6.4453125 33.990234 C 6.6106039 33.537203 6.972523 33.099446 7.4921875 32.798828 L 7.7324219 32.660156 A 18.000428 18.000428 0 0 1 7.4042969 31.859375 z M 39.705078 33.705078 A 18.000428 18.000428 0 0 1 39.322266 34.402344 L 39.548828 34.570312 C 39.983427 34.89041 40.280853 35.307589 40.419922 35.728516 C 40.669486 35.106642 40.382326 34.288101 39.705078 33.705078 z M 11.744141 38.160156 C 11.496153 38.665571 11.44198 39.193732 11.574219 39.626953 C 11.65065 39.32977 11.782579 39.029281 11.988281 38.75 L 12.150391 38.53125 A 18.000428 18.000428 0 0 1 11.744141 38.160156 z M 34.636719 39.474609 A 18.000428 18.000428 0 0 1 34.283203 39.748047 L 34.423828 39.990234 C 34.556374 40.219359 34.648857 40.456702 34.705078 40.691406 C 34.802113 40.327348 34.780718 39.901305 34.636719 39.474609 z M 17.757812 41.853516 C 17.756953 42.033555 17.770088 42.207566 17.806641 42.371094 C 17.818642 42.309102 17.82514 42.247924 17.841797 42.185547 L 17.914062 41.916016 A 18.000428 18.000428 0 0 1 17.757812 41.853516 z M 28.236328 42.470703 A 18.000428 18.000428 0 0 1 28.1875 42.484375 L 28.210938 42.640625 C 28.221797 42.584829 28.229317 42.528442 28.236328 42.470703 z"/>
</svg>

<svg xmlns="http://www.w3.org/2000/svg" width="48" height="48"><path style="opacity:.2" d="M21.278 5.007a1.178 1.178 0 0 0-.31.006c-.831.126-1.364 1.12-1.196 2.227l.04.275a18 18 0 0 0-3.472 1.217l-.139-.24c-.56-.97-1.597-1.413-2.324-.992-.727.42-.861 1.54-.3 2.51l.14.242a18 18 0 0 0-3.248 2.898l-.219-.162c-.902-.664-2.03-.653-2.527.023-.498.677-.173 1.754.728 2.418l.227.168a18 18 0 0 0-1.594 3.317l-.27-.072c-1.082-.29-2.129.131-2.345.943-.217.812.48 1.696 1.562 1.984l.266.07A18 18 0 0 0 6 25a18 18 0 0 0 .043 1.191l-.258.04c-1.107.167-1.897.972-1.771 1.802.126.83 1.119 1.364 2.226 1.196l.276-.041a18 18 0 0 0 1.217 3.472l-.24.139c-.97.56-1.414 1.597-.993 2.324.42.727 1.54.862 2.51.301l.242-.14a18 18 0 0 0 2.899 3.248l-.163.218c-.664.902-.652 2.03.024 2.528.676.498 1.754.173 2.418-.729l.168-.226a18 18 0 0 0 3.316 1.593l-.072.27c-.289 1.082.132 2.129.944 2.346.811.216 1.695-.48 1.984-1.563l.07-.265A18 18 0 0 0 24 43a18 18 0 0 0 1.192-.043l.039.258c.168 1.108.972 1.898 1.803 1.772.83-.126 1.363-1.12 1.195-2.227l-.04-.275a18 18 0 0 0 3.472-1.217l.138.24c.561.97 1.598 1.413 2.325.992.727-.42.861-1.54.3-2.51l-.14-.242a18 18 0 0 0 3.248-2.898l.219.162c.902.664 2.03.653 2.527-.023.498-.677.173-1.754-.728-2.418l-.227-.168a18 18 0 0 0 1.594-3.317l.27.072c1.081.29 2.128-.131 2.345-.943.217-.812-.48-1.696-1.562-1.984l-.266-.07A18 18 0 0 0 42.001 25a18 18 0 0 0-.043-1.191l.258-.04c1.107-.167 1.897-.972 1.771-1.802-.126-.83-1.119-1.364-2.226-1.196l-.276.041a18 18 0 0 0-1.217-3.472l.24-.139c.97-.56 1.413-1.597.993-2.324-.42-.727-1.54-.862-2.51-.301l-.242.14a18 18 0 0 0-2.899-3.248l.162-.218c.665-.902.653-2.03-.023-2.528-.676-.498-1.754-.173-2.418.729l-.168.226a18 18 0 0 0-3.316-1.593l.072-.27c.289-1.082-.132-2.129-.944-2.346-.811-.216-1.695.48-1.984 1.563l-.07.265A18 18 0 0 0 24 7a18 18 0 0 0-1.192.043l-.039-.258c-.147-.97-.78-1.696-1.492-1.778z"/><path style="fill:#4f4f4f" d="M20.968 4.013c-.83.126-1.364 1.119-1.196 2.226l1.527 10.064-5.097-8.811c-.56-.97-1.598-1.412-2.325-.991-.727.42-.86 1.54-.3 2.51l5.473 9.46-8.8-6.482c-.903-.664-2.03-.654-2.527.022-.499.676-.174 1.755.728 2.42l8.198 6.038-9.835-2.627c-1.082-.29-2.128.13-2.345.942-.217.812.48 1.697 1.561 1.986l10.562 2.82-10.808 1.64c-1.107.168-1.897.972-1.77 1.802.125.83 1.118 1.364 2.225 1.196l10.064-1.527-8.811 5.097c-.97.56-1.412 1.598-.991 2.325.42.727 1.54.86 2.51.3l9.46-5.473-6.482 8.8c-.664.903-.654 2.03.022 2.527.676.499 1.755.174 2.42-.728l6.038-8.198-2.627 9.835c-.29 1.082.13 2.128.942 2.345.812.217 1.697-.48 1.986-1.561l2.82-10.562 1.64 10.808c.168 1.107.972 1.897 1.802 1.77.83-.125 1.364-1.118 1.196-2.225l-1.527-10.064 5.097 8.811c.56.97 1.598 1.412 2.325.991.727-.42.86-1.54.3-2.51l-5.473-9.46 8.8 6.482c.903.664 2.03.654 2.527-.022.499-.676.174-1.755-.728-2.42l-8.198-6.038 9.835 2.627c1.082.29 2.128-.13 2.345-.942.217-.812-.48-1.697-1.561-1.986l-10.562-2.82 10.808-1.64c1.107-.168 1.897-.972 1.77-1.802-.125-.83-1.118-1.364-2.225-1.196l-10.064 1.527 8.811-5.097c.97-.56 1.412-1.598.991-2.325-.42-.727-1.54-.86-2.51-.3l-9.46 5.473 6.482-8.8c.664-.903.654-2.03-.022-2.527-.676-.499-1.755-.174-2.42.728l-6.038 8.198 2.627-9.835c.29-1.082-.13-2.128-.942-2.345-.812-.217-1.697.48-1.986 1.561l-2.82 10.562-1.64-10.808c-.168-1.107-.972-1.897-1.802-1.77z"/><circle style="fill:#4f4f4f" cx="24" cy="24" r="18"/><circle style="opacity:.3" cx="24" cy="24" r="12"/><circle style="opacity:.2" cx="24" cy="25" r="9"/><circle style="fill:#797979" cx="24" cy="24" r="9"/><path style="opacity:.2" d="m26 11-1.207 11H32L22 39l1.484-12H16z"/><path style="fill:#ff8602" d="m26 10-1.207 11H32L22 38l1.484-12H16z"/><path style="opacity:.2;fill:#f4f4f7" d="M26 10 16 26h.625l9.242-14.787L26 10zm-1.098 11-.109 1h6.62L32 21h-7.098zm-1.54 6L22 38l.156-.266L23.484 27h-.123z"/><path style="opacity:.1;fill:#f4f4f7" d="M21.277 4.008a1.178 1.178 0 0 0-.31.006c-.83.126-1.364 1.119-1.196 2.226l.02.125c.137-.713.575-1.26 1.176-1.351.104-.016.209-.018.31-.006.713.082 1.346.808 1.493 1.777l.039.258A18 18 0 0 1 24 7a18 18 0 0 1 3.16.297l.07-.266c.29-1.082 1.173-1.779 1.985-1.562.5.133.85.583.978 1.16.197-1.013-.213-1.956-.978-2.16-.812-.217-1.696.48-1.985 1.562l-.07.266A18 18 0 0 0 24 6a18 18 0 0 0-1.191.043l-.04-.258c-.146-.969-.78-1.695-1.492-1.777zM14.47 6.342a1.2 1.2 0 0 0-.592.158c-.554.32-.76 1.048-.58 1.805.093-.345.284-.634.58-.805.727-.42 1.763.023 2.324.992l.139.24a18 18 0 0 1 3.473-1.216l-.042-.276a2.618 2.618 0 0 1-.007-.71 18 18 0 0 0-3.424 1.202l-.139-.24c-.42-.727-1.108-1.158-1.732-1.15zm15.775.803c0 .217-.025.442-.086.67l-.072.269a18 18 0 0 1 3.316 1.594l.168-.227c.664-.902 1.742-1.226 2.418-.728.218.16.36.39.44.652.17-.663.028-1.308-.44-1.652-.676-.498-1.754-.174-2.418.728l-.168.227a18 18 0 0 0-3.158-1.533zm-16.88 2.38a18 18 0 0 0-2.895 2.625l-.219-.162c-.902-.664-2.03-.653-2.527.024-.258.35-.292.807-.143 1.26.037-.092.083-.18.143-.26.498-.677 1.625-.688 2.527-.024l.219.162a18 18 0 0 1 3.248-2.898l-.14-.242a2.64 2.64 0 0 1-.214-.485zm22.894 1.317a2.676 2.676 0 0 1-.246.408l-.162.219a18 18 0 0 1 2.898 3.248l.242-.14c.97-.562 2.09-.427 2.51.3.024.042.036.087.055.13.142-.39.14-.793-.055-1.13-.42-.727-1.54-.862-2.51-.3l-.242.14a18 18 0 0 0-2.49-2.875zM8.295 15.295a18 18 0 0 0-1.211 2.62l-.27-.073c-1.082-.29-2.129.132-2.345.943-.073.273-.035.551.078.815.318-.685 1.274-1.024 2.267-.758l.27.072a18 18 0 0 1 1.594-3.316l-.227-.168c-.057-.042-.104-.09-.156-.135zm32.303 1.846c-.031.02-.058.042-.09.06l-.24.139a18 18 0 0 1 1.216 3.473l.276-.042c.954-.144 1.822.233 2.125.872.095-.216.137-.444.101-.676-.126-.83-1.119-1.364-2.226-1.196l-.276.041a18 18 0 0 0-.886-2.671zm-34.43 4.666A18 18 0 0 0 6 24a18 18 0 0 0 .02.549 18 18 0 0 1 .277-2.71l-.129-.032zm35.824 1.996-.035.006a18 18 0 0 1 .023.65A18 18 0 0 0 42 24a18 18 0 0 0-.008-.197zM6.008 25.197l-.223.033c-1.107.168-1.897.973-1.771 1.803.017.115.055.222.103.324.245-.552.871-1.006 1.668-1.127l.258-.039a18 18 0 0 1-.035-.994zm35.824 1.996a18 18 0 0 1-.129.967l.266.07c.72.193 1.263.65 1.486 1.172.029-.06.058-.12.076-.187.217-.812-.48-1.696-1.562-1.985l-.137-.037zM7.404 31.86c-.85.538-1.25 1.44-.959 2.131.166-.453.528-.89 1.047-1.191l.24-.139a18 18 0 0 1-.328-.8zm32.301 1.846a18 18 0 0 1-.383.697l.227.168c.434.32.732.738.87 1.159.25-.622-.037-1.44-.714-2.024zm-27.96 4.455c-.249.506-.303 1.034-.17 1.467.076-.297.208-.598.413-.877l.162-.219a18 18 0 0 1-.406-.37zm22.892 1.315a18 18 0 0 1-.354.273l.14.242c.133.23.226.467.282.701.097-.364.076-.79-.068-1.216zm-16.88 2.379c0 .18.013.354.05.517.012-.062.018-.123.035-.185l.072-.27a18 18 0 0 1-.156-.062zm10.48.617a18 18 0 0 1-.05.013l.024.157c.01-.056.018-.113.025-.17z"/></svg>
